X: 07052
T: HETTY'S HORNPIPE
C: Bob McQuillen 29 May 89
B: Bob's Note Book 7 #52
%R: hornpipe, reel
Z: 2020 John Chambers <jc:trillian.mit.edu>
M: C
L: 1/8
K: G
A2 \
| B2BA G2D2 | BcBA G2FG | AGAB cBAG | A2d2 d2dc |
| B2BA G2D2 | BcBA GEDC | B,DGB cAdc | B2G2 G2 :|
|: A2 \
| B2GB d2Bd | g2fg agfe | dedc BGBd | c2A2 A2GA |
| B2GB d2Bd | g2fg agfe | dedB cAFG | A2GF G2 :|
%%begintext align
%% Hetty Thomas lives
%% in Norwich, VT. She and Irv got married
%% last year (isn't that nice?!) and they've been
%% dancing together ever since! Hope you can dance to
%% this tune OK, Hetty - Don't let Irv swing you off your
%% feet!
%%endtext

%%sep 1 1 500

%%sep 1 1 500

